X:45
T:St. Joe Hornpipe
M:2/4
L:1/16
Z: Jason R. Fruit <Jason R. Fruit@big-mac>
N: From Bob Walters, 1949.
K:Bb
FD | B,2DF B2Bc | dcde dcBd | cdcB AFAc | B2Bc dBFD |
B,2DF B2Bc | dcde dcBd | cdcB AFGA | BdcA B2 :|
|: dc | Bcdf b2fb | a2g^f gage | Acef agaf | g2fg gecA |
Bcdf b2fb | a2g2 g3=e | fagf _ecAc | BdcA B2 :|

